modules/themify-icons/icons/fullscreen.svg

<?xml version="1.0" encoding="utf-8"?>
<!-- Generated by IcoMoon.io -->
<!DOCTYPE svg PUBLIC "-//W3C//DTD SVG 1.1//EN" "http://www.w3.org/Graphics/SVG/1.1/DTD/svg11.dtd">
<svg version="1.1" xmlns="http://www.w3.org/2000/svg" xmlns:xlink="http://www.w3.org/1999/xlink" width="17" height="17" viewBox="0 0 17 17">
<g>
</g>
	<path d="M15.996 11.352l0.004 4.648-4.649-0.004 0.001-1 2.94 0.003-5.792-5.791-5.792 5.792 2.94-0.003 0.001 1-4.649 0.003 0.004-4.649 1 0.001-0.003 2.939 5.792-5.791-5.792-5.792 0.003 2.939-1 0.001-0.004-4.648 4.649 0.004-0.001 1-2.94-0.003 5.792 5.792 5.792-5.792-2.94 0.003-0.001-1 4.649-0.004-0.004 4.649-1-0.001 0.003-2.939-5.792 5.791 5.792 5.792-0.003-2.939 1-0.001z" fill="#000000" />
</svg>

<svg xmlns="http://www.w3.org/2000/svg" width="17" height="17" viewBox="0 0 17 17"><path d="M15.996 11.352L16 16l-4.649-.004.001-1 2.94.003L8.5 9.208 2.708 15l2.94-.003.001 1L1 16l.004-4.649 1 .001-.003 2.939L7.793 8.5 2.001 2.708l.003 2.939-1 .001L1 1l4.649.004-.001 1-2.94-.003L8.5 7.793l5.792-5.792-2.94.003-.001-1L16 1l-.004 4.649-1-.001.003-2.939L9.207 8.5l5.792 5.792-.003-2.939 1-.001z"/></svg>
